X: 34093
T: Reel Des Appalaches
R: reel
M: 4/4
K: Dmajor
d>c BA F2 F2|d>c ed B2 B2|e>d cB c2 c>B|1 AA BA F2 F2:|2 Ag fed2 d2||
F>A dF G>B dB|A>c ec d/c/d/e/ fd|F>A dF G>B dB|A>c ec d/f/e/c/ d2:|

